X: 16
T:Breton \#6 in G
M:6/4
L:1/8
R:Other
O:France
A:Brittany
Z:bil@blueskiesink.com
K:Em
G2FG E2D2 E4 | GEFG A2B2 G2E2 | \
G2FG E2D2 E4 | GEFG A2GB F4 :|!
|: E2BA B2c2 AcB2 | A2BA G2E2 AGFB |\
E2BA B2c2 AcB2 | A2GA B2A2 GFE2 :|
<end>
<start>
